X:1
T:Hall (Laufer), 10.10.10.10
T:Hall (Laufer), 10.10.10.10
T:Calvin Weiss Laufer, 1918
T:Public Domain Courtesy of the Cyber Hymnal™
C:Calvin Weiss Laufer, 1918
Z:Public Domain
Z:Courtesy of the Cyber Hymnal™
%%score ( 1 2 ) ( 3 4 )
L:1/8
Q:1/4=115
M:4/4
K:Eb
V:1 treble 
V:2 treble 
V:3 bass 
V:4 bass 
V:1
 [EB]4 [EG]2 [DF]2 | E3 [DF] [EG]4 | [EA]4 [EB]2 [Ec]2 | [EB]8 | [DF]4 E2 [DF]2 | %5
 [EG]3 [EA] [EB]4 | [E=A]4 [Ec]2 [Ed]2 | [DB]8 | [DA]4 [DG]2 [DF]2 | E3 [DF] [EG]4 | %10
 [_DB]4 [DB]2 [DE]2 | [Cc]8 | [Ae]4 [Ed]2 [Ec]2 | [EB]3 [EG] E4 | [EG]4 [B,E]2 [DF]2 | E8 |] %16
V:2
 x8 | E3 x5 | x8 | x8 | x4 E2 x2 | x8 | x8 | x8 | x8 | E3 x5 | x8 | x8 | x8 | x4 E4 | x8 | E8 |] %16
V:3
 [E,G,]4 [E,B,]2 [B,,B,]2 | [C,G,]3 [B,,B,] [E,B,]4 | [A,,C]4 [A,,B,]2 [A,,A,]2 | [E,G,]8 | %4
 B,4 [G,B,]2 B,2 | [E,B,]3 [F,B,] [G,B,]4 | [F,C]4 [F,=A,]2 [F,A,]2 | [B,,B,]8 | %8
 [B,,B,]4 B,2 [A,B,]2 | [G,B,]3 [F,A,] [E,B,]4 | [E,G,]4 [E,G,]2 [E,B,]2 | [A,,A,]8 | %12
 [A,,C]4 [A,,B,]2 [A,,A,]2 | [E,G,]3 [E,B,] [C,=A,]4 | [B,,B,]4 [B,,G,]2 [B,,A,]2 | [E,G,]8 |] %16
V:4
 x8 | x8 | x8 | x8 | B,4 B,2 x2 | x8 | x8 | x8 | x4 B,2 x2 | x8 | x8 | x8 | x8 | x8 | x8 | x8 |] %16

